actions/24/edit-find-replace.svg

<?xml version="1.0" encoding="UTF-8" standalone="no"?>
<svg
   width="24"
   height="24"
   version="1.1"
   id="svg11"
   sodipodi:docname="edit-find-replace.svg"
   inkscape:version="1.1.2 (0a00cf5339, 2022-02-04)"
   xmlns:inkscape="http://www.inkscape.org/namespaces/inkscape"
   xmlns:sodipodi="http://sodipodi.sourceforge.net/DTD/sodipodi-0.dtd"
   xmlns="http://www.w3.org/2000/svg"
   xmlns:svg="http://www.w3.org/2000/svg">
  <sodipodi:namedview
     id="namedview13"
     pagecolor="#000000"
     bordercolor="#666666"
     borderopacity="1.0"
     inkscape:pageshadow="2"
     inkscape:pageopacity="0"
     inkscape:pagecheckerboard="0"
     showgrid="false"
     inkscape:zoom="28.416667"
     inkscape:cx="11.982405"
     inkscape:cy="11.964809"
     inkscape:window-width="1886"
     inkscape:window-height="967"
     inkscape:window-x="0"
     inkscape:window-y="29"
     inkscape:window-maximized="1"
     inkscape:current-layer="g9" />
  <defs
     id="defs3">
    <style
       id="current-color-scheme"
       type="text/css">
   .ColorScheme-Text { color:#eeeeec; } .ColorScheme-Highlight { color:#367bf0; } .ColorScheme-NeutralText { color:#ffcc44; } .ColorScheme-PositiveText { color:#3db47e; } .ColorScheme-NegativeText { color:#dd4747; }
  </style>
  </defs>
  <g
     transform="matrix(1,0,0,1,4,4)"
     id="g9">
    <path
       class="ColorScheme-Text"
       d="M 6.5,1 C 3.4624339,1 1,3.4624339 1,6.5 1.0026434,7.713286 1.4064004,8.8916487 2.1484,9.8516 L 3.5781,8.4219 C 3.2019182,7.851436 3.0009547,7.1833308 3,6.5 3,4.5670034 4.5670034,3 6.5,3 7.1833308,3.0009547 7.851436,3.2019182 8.4219,3.5781 L 9.8535,2.1465 C 8.8927893,1.4047838 7.7137155,1.0016801 6.5,1 Z m 4.906158,7.9686821 -0.22716,-0.1473503 -2.2700618,2.2701962 0.1169339,0.29093 c 0.2442215,-0.08446 -0.2294544,0.117619 0,0 C 9.2298961,11.277873 9.4274074,11.160519 9.6172,11.031 l 3.6618,3.662 c 0.188559,0.196161 0.448909,0.307017 0.721,0.307 0.552285,0 1,-0.447715 1,-1 -1.9e-5,-0.270113 -0.109309,-0.528731 -0.303,-0.717 l -3.67,-3.6697 c 0.141019,-0.206246 0.267665,-0.4216341 0.379158,-0.6446179 0.104916,-0.2098309 -0.07743,0.2219943 0,0 z"
       style="fill:currentColor"
       id="path5"
       sodipodi:nodetypes="cccccccccccccsccccccsc" />
    <path
       class="ColorScheme-Text"
       d="m 2,11.32 v 2.071901 0 L 2.5182196,14 H 4.67 L 11.42,7.25 8.75,4.57 Z M 13.79,4.89 c 0.28,-0.28 0.28,-0.73 0,-1.01 L 12.12,2.21 c -0.29,-0.28 -0.73,-0.28 -1.01,0 l -1.4,1.4 2.67,2.68 z"
       style="fill:currentColor"
       id="path7"
       sodipodi:nodetypes="cccccccccscsccc" />
  </g>
</svg>

<svg xmlns="http://www.w3.org/2000/svg" width="24" height="24" version="1.1">
 <defs>
  <style id="current-color-scheme" type="text/css">
   .ColorScheme-Text { color:#eeeeec; } .ColorScheme-Highlight { color:#367bf0; } .ColorScheme-NeutralText { color:#ffcc44; } .ColorScheme-PositiveText { color:#3db47e; } .ColorScheme-NegativeText { color:#dd4747; }
  </style>
 </defs>
 <g transform="matrix(1,0,0,1,4,4)">
  <path class="ColorScheme-Text" d="M 6.5,1 A 5.5,5.5 0 0 0 1,6.5 5.5,5.5 0 0 0 2.1484,9.8516 L 3.5781,8.4219 A 3.5,3.5 0 0 1 3,6.5 3.5,3.5 0 0 1 6.5,3 3.5,3.5 0 0 1 8.4219,3.5781 L 9.8535,2.1465 A 5.5,5.5 0 0 0 6.5,1 Z M 11.68,8.3203 8.3145,11.686 A 5.5,5.5 0 0 0 9.6172,11.031 L 13.279,14.693 A 1,1 0 0 0 14,15 1,1 0 0 0 15,14 1,1 0 0 0 14.697,13.283 L 11.027,9.6133 A 5.5,5.5 0 0 0 11.68,8.3203 Z" style="fill:currentColor"/>
  <path class="ColorScheme-Text" d="M 2,11.32 V 14 H 4.67 L 11.42,7.25 8.75,4.57 Z M 13.79,4.89 C 14.07,4.61 14.07,4.16 13.79,3.88 L 12.12,2.21 C 11.83,1.93 11.39,1.93 11.11,2.21 L 9.71,3.61 12.38,6.29 Z" style="fill:currentColor"/>
 </g>
</svg>
